public/images/ai32.svg

<svg width="100" height="100" viewBox="0 0 100 100" fill="none" xmlns="http://www.w3.org/2000/svg">
<path d="M76.1686 69.0368C88.1374 57.0352 90.1266 39.5719 80.6114 30.0307C71.0976 20.4906 53.6839 22.485 41.7159 34.4859C29.7479 46.4872 33.21 69.416 37.2739 73.4921C40.5579 76.7853 64.2013 81.0378 76.1686 69.0368Z" fill="#F89939"/>
<path d="M27.059 51.6947C20.1157 44.732 10.0111 43.5728 4.48944 49.1096C-1.03076 54.6456 0.123393 64.7801 7.06808 71.7418C14.0128 78.7067 27.2798 76.692 29.6362 74.3269C31.5431 72.4179 34.0044 58.6582 27.059 51.6947Z" fill="#3499CD"/>
<path d="M51.0158 66.0951C49.7892 67.2274 48.7132 68.063 47.7884 68.5999C46.8636 69.1385 45.9815 69.4075 45.1422 69.4075C44.1768 69.4075 43.3979 69.0322 42.8074 68.2813C42.2159 67.5297 41.9211 66.5218 41.9211 65.2539C41.9211 63.3541 42.3318 61.0733 43.153 58.4141C43.9729 55.7527 44.9712 53.3004 46.1437 51.0569L49.5818 49.7804C49.6896 49.7443 49.7716 49.7258 49.826 49.7258C50.0868 49.7258 50.3023 49.9186 50.4677 50.3024C50.6349 50.688 50.719 51.2061 50.719 51.8574C50.719 53.7033 50.2953 55.4905 49.4461 57.2187C48.5973 58.9477 47.2714 60.793 45.467 62.7566C45.3945 63.6978 45.3585 64.3442 45.3585 64.6975C45.3585 65.4853 45.5027 66.1086 45.7914 66.5704C46.0805 67.0328 46.4635 67.2625 46.942 67.2625C47.43 67.2625 47.9484 67.0874 48.499 66.7344C49.0485 66.3808 49.8878 65.6486 51.0155 64.5348V66.0951H51.0158ZM45.8324 60.7891C46.9781 59.5116 47.9085 58.0788 48.6209 56.4937C49.3334 54.9079 49.6892 53.5439 49.6892 52.401C49.6892 52.0679 49.6401 51.7972 49.5415 51.5937C49.4422 51.39 49.315 51.2876 49.162 51.2876C48.8294 51.2876 48.3435 52.1211 47.7071 53.7884C47.0706 55.4554 46.4459 57.7893 45.8324 60.7891Z" fill="#010101"/>
<path d="M61.141 66.0952C59.9953 67.2274 58.967 68.063 58.0552 68.5999C57.1435 69.1385 56.1385 69.4075 55.037 69.4075C53.8097 69.4075 52.8195 69.0138 52.065 68.2274C51.312 67.4389 50.936 66.4038 50.936 65.1185C50.936 63.2006 51.5986 61.4652 52.9266 59.9134C54.2518 58.3609 55.7233 57.5852 57.3382 57.5852C58.1775 57.5852 58.8489 57.8031 59.355 58.2372C59.8603 58.672 60.113 59.2415 60.113 59.9474C60.113 61.821 58.128 63.3402 54.1578 64.5079C54.5182 66.2716 55.461 67.1547 56.9862 67.1547C57.5821 67.1547 58.1499 66.9942 58.691 66.6738C59.2334 66.3521 60.0494 65.6384 61.1413 64.5352L61.141 66.0952ZM54.0486 63.5848C56.3579 62.9327 57.5135 61.73 57.5135 59.9744C57.5135 59.1058 57.1972 58.6717 56.5664 58.6717C55.9706 58.6717 55.4027 59.1257 54.8617 60.036C54.3189 60.945 54.0486 62.1272 54.0486 63.5848Z" fill="#010101"/>
<path d="M75.5965 66.0951C74.1525 67.4705 73.1192 68.3674 72.4973 68.7842C71.8746 69.2002 71.2792 69.4078 70.7102 69.4078C69.2843 69.4078 68.6125 68.1459 68.6935 65.621C67.7913 66.9145 66.9584 67.8692 66.1958 68.4858C65.4339 69.101 64.6469 69.4078 63.8337 69.4078C63.0408 69.4078 62.3665 69.0354 61.8106 68.2887C61.2548 67.5421 60.9788 66.6264 60.9788 65.5395C60.9788 64.1829 61.3502 62.8888 62.094 61.6573C62.8393 60.4266 63.7935 59.4322 64.9571 58.672C66.1208 57.9119 67.1506 57.5313 68.0429 57.5313C69.1712 57.5313 69.9611 58.0519 70.4123 59.092L73.1786 57.559H73.9377L72.7429 61.5354C72.1294 63.5358 71.8216 64.9069 71.8216 65.6486C71.8216 66.4265 72.0962 66.8156 72.6471 66.8156C72.9977 66.8156 73.3857 66.6281 73.8101 66.2521C74.2345 65.8761 74.8289 65.3038 75.5958 64.5348V66.0951H75.5965ZM65.6887 66.8425C66.5908 66.8425 67.4411 66.0714 68.2411 64.5288C69.0398 62.9855 69.4388 61.5616 69.4388 60.2589C69.4388 59.7529 69.325 59.3563 69.1006 59.0718C68.874 58.7858 68.5719 58.644 68.1938 58.644C67.2909 58.644 66.435 59.413 65.6289 60.9517C64.8214 62.4904 64.4168 63.9065 64.4168 65.1993C64.4168 65.6887 64.537 66.0845 64.7759 66.3879C65.0147 66.6912 65.318 66.8425 65.6887 66.8425Z" fill="#010101"/>
<path d="M85.7078 66.0951C83.4426 68.321 81.6962 69.4348 80.4693 69.4348C79.9183 69.4348 79.4533 69.2016 79.0752 68.737C78.6971 68.2707 78.5066 67.6934 78.5066 67.0052C78.5066 65.7294 79.1886 64.0199 80.5509 61.8749C79.8827 62.219 79.1526 62.4578 78.3582 62.5939C77.7715 63.6797 76.8506 64.8474 75.5968 66.0948H75.2862V64.8747C75.9894 64.1418 76.6259 63.3541 77.1945 62.5124C76.4174 62.1683 76.0301 61.6569 76.0301 60.9794C76.0301 60.2816 76.2661 59.5378 76.7411 58.745C77.2146 57.9541 77.8662 57.5586 78.6971 57.5586C79.401 57.5586 79.7523 57.9193 79.7523 58.6437C79.7523 59.2139 79.5494 60.0279 79.1427 61.0871C80.6403 60.9237 81.9489 59.7756 83.0684 57.6394L84.2996 57.5848L83.0408 61.0595C82.5178 62.5255 82.1793 63.5242 82.0263 64.0529C81.8733 64.5816 81.7959 65.0508 81.7959 65.4573C81.7959 65.8379 81.8842 66.1419 82.0595 66.3666C82.2355 66.5945 82.473 66.7064 82.7705 66.7064C83.0949 66.7064 83.4069 66.5952 83.7045 66.3747C84.002 66.1511 84.6699 65.5388 85.7082 64.5345V66.0951H85.7078Z" fill="#010101"/>
<path d="M98.9999 66.0951C96.9157 68.3043 95.1279 69.4078 93.6398 69.4078C93.0352 69.4078 92.5479 69.1952 92.1779 68.7696C91.8072 68.3447 91.6223 67.7749 91.6223 67.0601C91.6223 66.0919 92.0199 64.6121 92.8143 62.6223C93.238 61.5542 93.4508 60.8745 93.4508 60.586C93.4508 60.2961 93.337 60.1512 93.1126 60.1512C92.9864 60.1512 92.8186 60.215 92.6115 60.3408C92.421 60.4673 92.2001 60.6452 91.9475 60.8709C91.7224 61.0786 91.469 61.332 91.1894 61.6297C90.9453 61.8852 90.6834 62.1743 90.4053 62.4989L89.6462 63.382C89.313 63.7889 89.1052 64.218 89.0243 64.6709C88.8882 65.4399 88.7985 66.1465 88.7529 66.7897C88.7253 67.2681 88.7122 67.9145 88.7122 68.7306L85.7209 69.4351C85.6223 68.2136 85.5717 67.3039 85.5717 66.7075C85.5717 65.2507 85.741 63.8704 86.0799 62.5677C86.4181 61.2636 86.9612 59.7986 87.7107 58.1692L91.0128 57.5316C90.3184 59.4052 89.8629 60.8794 89.6462 61.9557C91.1262 60.3 92.2994 59.154 93.1691 58.515C94.0374 57.8768 94.8106 57.5593 95.4862 57.5593C95.9453 57.5593 96.3291 57.7329 96.6347 58.0806C96.9418 58.4286 97.0945 58.8655 97.0945 59.3879C97.0945 60.2557 96.7065 61.6856 95.9315 63.6772C95.3986 65.043 95.1321 65.9293 95.1321 66.3386C95.1321 66.8833 95.3537 67.1554 95.7969 67.1554C96.4566 67.1554 97.5253 66.2819 98.9999 64.5355V66.0951Z" fill="#010101"/>
<path d="M58.962 49.195L58.348 49.3693C58.3094 49.2666 58.2524 49.1669 58.1771 49.0701C58.1037 48.9714 58.0033 48.89 57.8759 48.8261C57.7484 48.7622 57.5853 48.7303 57.3864 48.7303C57.1142 48.7303 56.8873 48.7932 56.7058 48.9191C56.5262 49.043 56.4364 49.2008 56.4364 49.3925C56.4364 49.5629 56.4982 49.6975 56.6218 49.7962C56.7454 49.895 56.9385 49.9773 57.201 50.0431L57.8614 50.2057C58.2592 50.3026 58.5555 50.4507 58.7506 50.6501C58.9456 50.8476 59.0431 51.1022 59.0431 51.414C59.0431 51.6696 58.9697 51.898 58.823 52.0994C58.6781 52.3008 58.4754 52.4596 58.2147 52.5757C57.9541 52.6919 57.6509 52.75 57.3053 52.75C56.8516 52.75 56.476 52.6513 56.1787 52.4538C55.8813 52.2563 55.6931 51.9677 55.6139 51.5882L56.2627 51.4256C56.3244 51.6657 56.4413 51.8458 56.6131 51.9658C56.7869 52.0859 57.0138 52.1459 57.2937 52.1459C57.6123 52.1459 57.8653 52.0781 58.0526 51.9426C58.2418 51.8051 58.3364 51.6405 58.3364 51.4488C58.3364 51.2939 58.2823 51.1642 58.1742 51.0596C58.0661 50.9531 57.9 50.8738 57.676 50.8215L56.9346 50.6472C56.5272 50.5504 56.2279 50.4003 56.0367 50.197C55.8475 49.9918 55.7529 49.7352 55.7529 49.4274C55.7529 49.1756 55.8234 48.953 55.9643 48.7593C56.1072 48.5657 56.3013 48.4137 56.5465 48.3034C56.7936 48.193 57.0736 48.1378 57.3864 48.1378C57.8266 48.1378 58.1723 48.2346 58.4233 48.4282C58.6762 48.6219 58.8558 48.8775 58.962 49.195Z" fill="white"/>
<path d="M61.8793 52.75C61.4622 52.75 61.1031 52.6513 60.8018 52.4538C60.5006 52.2563 60.2689 51.9842 60.1067 51.6376C59.9445 51.291 59.8634 50.8951 59.8634 50.4497C59.8634 49.9966 59.9465 49.5968 60.1125 49.2502C60.2805 48.9017 60.5141 48.6296 60.8134 48.434C61.1146 48.2366 61.4661 48.1378 61.8677 48.1378C62.1805 48.1378 62.4624 48.1959 62.7134 48.3121C62.9644 48.4282 63.17 48.5909 63.3303 48.8C63.4905 49.0091 63.59 49.2531 63.6286 49.5319H62.9451C62.893 49.3286 62.7771 49.1485 62.5975 48.9917C62.4199 48.8329 62.1805 48.7535 61.8793 48.7535C61.6128 48.7535 61.3792 48.8232 61.1784 48.9627C60.9795 49.1001 60.824 49.2947 60.7121 49.5464C60.602 49.7962 60.547 50.0896 60.547 50.4265C60.547 50.7711 60.601 51.0713 60.7092 51.3268C60.8192 51.5824 60.9737 51.7809 61.1726 51.9222C61.3734 52.0636 61.6089 52.1343 61.8793 52.1343C62.0569 52.1343 62.2181 52.1033 62.3629 52.0413C62.5077 51.9794 62.6304 51.8903 62.7308 51.7741C62.8312 51.6579 62.9026 51.5185 62.9451 51.3559H63.6286C63.59 51.6192 63.4944 51.8564 63.3419 52.0675C63.1913 52.2766 62.9914 52.4431 62.7423 52.567C62.4952 52.689 62.2075 52.75 61.8793 52.75Z" fill="white"/>
<path d="M64.6278 52.6571V48.1959H65.3113V52.6571H64.6278ZM64.9754 47.4524C64.8421 47.4524 64.7273 47.4069 64.6307 47.3159C64.5361 47.2248 64.4888 47.1154 64.4888 46.9877C64.4888 46.8599 64.5361 46.7505 64.6307 46.6595C64.7273 46.5685 64.8421 46.5229 64.9754 46.5229C65.1086 46.5229 65.2225 46.5685 65.3171 46.6595C65.4137 46.7505 65.4619 46.8599 65.4619 46.9877C65.4619 47.1154 65.4137 47.2248 65.3171 47.3159C65.2225 47.4069 65.1086 47.4524 64.9754 47.4524Z" fill="white"/>
<path d="M67.2004 51.0306L67.1889 50.1825H67.3279L69.2742 48.1959H70.1199L68.0461 50.2987H67.9882L67.2004 51.0306ZM66.5633 52.6571V46.7088H67.2468V52.6571H66.5633ZM69.39 52.6571L67.6523 50.4497L68.1388 49.9734L70.2589 52.6571H69.39Z" fill="white"/>
<path d="M70.9996 52.6571V48.1959H71.6831V52.6571H70.9996ZM71.3472 47.4524C71.2139 47.4524 71.0991 47.4069 71.0025 47.3159C70.9079 47.2248 70.8606 47.1154 70.8606 46.9877C70.8606 46.8599 70.9079 46.7505 71.0025 46.6595C71.0991 46.5685 71.2139 46.5229 71.3472 46.5229C71.4804 46.5229 71.5943 46.5685 71.6889 46.6595C71.7855 46.7505 71.8337 46.8599 71.8337 46.9877C71.8337 47.1154 71.7855 47.2248 71.6889 47.3159C71.5943 47.4069 71.4804 47.4524 71.3472 47.4524Z" fill="white"/>
<path d="M74.8698 48.1959V48.7768H72.5643V48.1959H74.8698ZM73.2363 47.1271H73.9198V51.3791C73.9198 51.5727 73.9478 51.718 74.0038 51.8148C74.0617 51.9097 74.1351 51.9736 74.2239 52.0065C74.3146 52.0375 74.4102 52.0529 74.5106 52.0529C74.5859 52.0529 74.6477 52.0491 74.696 52.0413C74.7443 52.0316 74.7829 52.0239 74.8118 52.0181L74.9509 52.6338C74.9045 52.6513 74.8398 52.6687 74.7568 52.6861C74.6738 52.7055 74.5686 52.7151 74.4411 52.7151C74.248 52.7151 74.0588 52.6735 73.8734 52.5903C73.69 52.507 73.5375 52.3802 73.4158 52.2098C73.2961 52.0394 73.2363 51.8245 73.2363 51.565V47.1271Z" fill="white"/>
</svg>

<svg xmlns="http://www.w3.org/2000/svg" width="100" height="100" fill="none"><path fill="#F89939" d="M76.169 69.037C88.137 57.035 90.127 39.572 80.61 30.03c-9.513-9.54-26.927-7.546-38.895 4.455s-8.506 34.93-4.442 39.006c3.284 3.293 26.927 7.546 38.895-4.455"/><path fill="#3499CD" d="M27.059 51.695c-6.943-6.963-17.048-8.122-22.57-2.585-5.52 5.536-4.366 15.67 2.58 22.632 6.944 6.965 20.21 4.95 22.567 2.585 1.907-1.91 4.368-15.669-2.577-22.632"/><path fill="#010101" d="M51.016 66.095q-1.84 1.699-3.228 2.505-1.386.808-2.646.808-1.448 0-2.335-1.127-.886-1.127-.886-3.027 0-2.85 1.232-6.84 1.231-3.992 2.99-7.357l3.439-1.277a.9.9 0 0 1 .244-.054q.392 0 .642.576.25.579.251 1.555 0 2.769-1.273 5.362t-3.979 5.538q-.108 1.41-.108 1.94 0 1.182.432 1.873.434.694 1.151.693.731 0 1.557-.529.825-.528 2.517-2.2zm-5.184-5.306a16.6 16.6 0 0 0 2.789-4.295q1.068-2.379 1.068-4.093 0-.501-.148-.807-.149-.306-.379-.306-.5 0-1.455 2.5-.954 2.5-1.875 7.001"/><path fill="#010101" d="M61.141 66.095q-1.718 1.699-3.086 2.505a5.8 5.8 0 0 1-3.018.808q-1.84 0-2.972-1.18c-.753-.79-1.129-1.824-1.129-3.11q0-2.876 1.99-5.205 1.99-2.328 4.412-2.328 1.258 0 2.017.652.758.653.758 1.71 0 2.81-5.955 4.56.54 2.648 2.828 2.648.894 0 1.705-.481.813-.484 2.45-2.139zm-7.092-2.51q3.464-.978 3.465-3.61 0-1.304-.948-1.303-.892 0-1.704 1.364-.814 1.363-.813 3.549"/><path fill="#010101" d="M75.597 66.095q-2.166 2.064-3.1 2.69-.933.623-1.787.623-2.138 0-2.016-3.787-1.355 1.94-2.498 2.865-1.144.922-2.362.922-1.19 0-2.023-1.12-.833-1.119-.832-2.748 0-2.035 1.115-3.883a9.2 9.2 0 0 1 2.863-2.985q1.747-1.14 3.086-1.14 1.692 0 2.37 1.56l2.766-1.533h.759l-1.195 3.976q-.921 3-.921 4.114 0 1.167.825 1.167.526 0 1.163-.564a44 44 0 0 0 1.786-1.717v1.56m-9.908.748q1.352 0 2.552-2.314 1.198-2.315 1.198-4.27-.001-.76-.338-1.187a1.1 1.1 0 0 0-.907-.428q-1.355 0-2.565 2.308-1.212 2.308-1.212 4.247 0 .735.359 1.189.358.454.913.454"/><path fill="#010101" d="M85.708 66.095q-3.398 3.34-5.239 3.34-.826 0-1.394-.698-.568-.7-.568-1.732 0-1.913 2.044-5.13a7.5 7.5 0 0 1-2.193.719q-.88 1.63-2.761 3.5h-.31v-1.22q1.054-1.099 1.907-2.362-1.165-.516-1.164-1.533 0-1.045.711-2.234.71-1.185 1.956-1.186 1.055-.001 1.055 1.085 0 .855-.61 2.443 2.247-.243 3.926-3.448l1.232-.054-1.26 3.474q-.783 2.2-1.014 2.994t-.23 1.404q0 .571.263.91a.85.85 0 0 0 .712.34q.487-.001.933-.332.447-.335 2.004-1.84z"/><path fill="#010101" d="M99 66.095q-3.127 3.314-5.36 3.313-.907 0-1.462-.638t-.556-1.71q0-1.452 1.192-4.438.637-1.603.637-2.036-.001-.435-.338-.435-.19 0-.501.19-.286.19-.664.53-.339.312-.759.759-.367.382-.784.869l-.759.883q-.5.61-.622 1.289a21 21 0 0 0-.271 2.119q-.041.716-.04 1.94l-2.992.705q-.15-1.832-.15-2.728 0-2.185.509-4.14.507-1.954 1.63-4.398l3.303-.637q-1.042 2.809-1.367 4.424 2.219-2.483 3.523-3.441 1.303-.957 2.317-.956.69 0 1.149.522t.46 1.307q0 1.302-1.163 4.29-.8 2.047-.8 2.66 0 .817.665.817.99 0 3.203-2.62z"/><path fill="#fff" d="m58.962 49.195-.614.174a1.1 1.1 0 0 0-.17-.299.8.8 0 0 0-.302-.244 1.1 1.1 0 0 0-.49-.096q-.408 0-.68.19-.27.184-.27.472 0 .255.186.404.184.148.579.247l.66.163q.597.145.89.444.292.297.292.764 0 .384-.22.685a1.46 1.46 0 0 1-.608.477q-.39.174-.91.174-.68 0-1.126-.296-.447-.296-.565-.866l.649-.162q.092.36.35.54.26.18.68.18.479 0 .76-.203.283-.206.283-.494a.52.52 0 0 0-.162-.39q-.162-.159-.498-.237l-.741-.175q-.612-.145-.898-.45a1.1 1.1 0 0 1-.284-.77q0-.377.211-.668a1.44 1.44 0 0 1 .583-.456q.37-.165.84-.165.66 0 1.036.29.38.291.539.767M61.88 52.75q-.627 0-1.078-.296a1.93 1.93 0 0 1-.695-.816 2.8 2.8 0 0 1-.244-1.188q0-.68.25-1.2.252-.522.7-.816a1.9 1.9 0 0 1 1.055-.296q.469 0 .845.174.377.174.617.488t.299.732h-.684a1.06 1.06 0 0 0-.348-.54q-.265-.239-.718-.238-.4 0-.7.209a1.36 1.36 0 0 0-.467.583q-.165.375-.165.88 0 .517.162.9.165.384.464.596.3.213.706.212.267 0 .484-.093a1 1 0 0 0 .582-.685h.684a1.59 1.59 0 0 1-.887 1.211 1.9 1.9 0 0 1-.863.183M64.628 52.657v-4.461h.683v4.461zm.347-5.205a.49.49 0 0 1-.344-.136.44.44 0 0 1-.142-.328.44.44 0 0 1 .142-.328.49.49 0 0 1 .344-.137q.201 0 .342.136.145.137.145.329a.44.44 0 0 1-.145.328.48.48 0 0 1-.342.136M67.2 51.03l-.011-.848h.139l1.946-1.986h.846l-2.074 2.103h-.058zm-.637 1.627V46.71h.684v5.948zm2.827 0-1.738-2.207.487-.477 2.12 2.684zM71 52.657v-4.461h.683v4.461zm.347-5.205a.49.49 0 0 1-.344-.136.44.44 0 0 1-.142-.328.44.44 0 0 1 .141-.328.49.49 0 0 1 .345-.137q.2 0 .342.136.145.137.145.329a.44.44 0 0 1-.145.328.48.48 0 0 1-.342.136M74.87 48.196v.58h-2.306v-.58zm-1.634-1.069h.684v4.252q0 .29.084.436a.44.44 0 0 0 .22.192.9.9 0 0 0 .287.046q.113 0 .185-.012l.116-.023.139.616a1.422 1.422 0 0 1-.51.081q-.29 0-.568-.125a1.13 1.13 0 0 1-.457-.38q-.18-.256-.18-.645z"/></svg>
